static/img/kroki/b422a70752e211dd33ff770510b7bb65.svg

<?xml version="1.0" encoding="us-ascii" standalone="no"?><svg xmlns="http://www.w3.org/2000/svg" xmlns:xlink="http://www.w3.org/1999/xlink" contentStyleType="text/css" height="374px" preserveAspectRatio="none" style="width:278px;height:374px;" version="1.1" viewBox="0 0 278 374" width="278px" zoomAndPan="magnify"><defs/><g><!--class azure_web_app_static_site--><g id="elem_azure_web_app_static_site"><rect codeLine="23" fill="#3D176E" height="39.7891" id="azure_web_app_static_site" rx="2.5" ry="2.5" style="stroke:#000D19;stroke-width:0.5;" width="264" x="7" y="328.58"/><ellipse cx="22" cy="348.4745" fill="#ADD1B2" rx="11" ry="11" style="stroke:#181818;stroke-width:1.0;"/><path d="M24.9688,354.1152 Q24.3906,354.412 23.75,354.5527 Q23.1094,354.7089 22.4063,354.7089 Q19.9063,354.7089 18.5781,353.0683 Q17.2656,351.412 17.2656,348.287 Q17.2656,345.162 18.5781,343.5058 Q19.9063,341.8495 22.4063,341.8495 Q23.1094,341.8495 23.75,342.0058 Q24.4063,342.162 24.9688,342.4589 L24.9688,345.1777 Q24.3438,344.5995 23.75,344.3339 Q23.1563,344.0527 22.5313,344.0527 Q21.1875,344.0527 20.5,345.1308 Q19.8125,346.1933 19.8125,348.287 Q19.8125,350.3808 20.5,351.4589 Q21.1875,352.5214 22.5313,352.5214 Q23.1563,352.5214 23.75,352.2558 Q24.3438,351.9745 24.9688,351.3964 L24.9688,354.1152 Z " fill="#000000"/><text fill="#D9B8FF" font-family="Helvetica" font-size="17" lengthAdjust="spacing" textLength="222" x="41" y="354.3598">azure_web_app_static_site</text></g><!--class microsoft_resource--><g id="elem_microsoft_resource"><rect codeLine="26" fill="#3D176E" height="39.7891" id="microsoft_resource" rx="2.5" ry="2.5" style="stroke:#000D19;stroke-width:0.5;" width="200" x="39" y="167.79"/><ellipse cx="54" cy="187.6845" fill="#ADD1B2" rx="11" ry="11" style="stroke:#181818;stroke-width:1.0;"/><path d="M56.9688,193.3252 Q56.3906,193.622 55.75,193.7627 Q55.1094,193.9189 54.4063,193.9189 Q51.9063,193.9189 50.5781,192.2783 Q49.2656,190.622 49.2656,187.497 Q49.2656,184.372 50.5781,182.7158 Q51.9063,181.0595 54.4063,181.0595 Q55.1094,181.0595 55.75,181.2158 Q56.4063,181.372 56.9688,181.6689 L56.9688,184.3877 Q56.3438,183.8095 55.75,183.5439 Q55.1563,183.2627 54.5313,183.2627 Q53.1875,183.2627 52.5,184.3408 Q51.8125,185.4033 51.8125,187.497 Q51.8125,189.5908 52.5,190.6689 Q53.1875,191.7314 54.5313,191.7314 Q55.1563,191.7314 55.75,191.4658 Q56.3438,191.1845 56.9688,190.6064 L56.9688,193.3252 Z " fill="#000000"/><text fill="#D9B8FF" font-family="Helvetica" font-size="17" lengthAdjust="spacing" textLength="158" x="73" y="193.5698">microsoft_resource</text></g><!--class resource--><g id="elem_resource"><rect codeLine="29" fill="#3D176E" height="39.7891" id="resource" rx="2.5" ry="2.5" style="stroke:#000D19;stroke-width:0.5;" width="113" x="82.5" y="7"/><ellipse cx="97.5" cy="26.8945" fill="#ADD1B2" rx="11" ry="11" style="stroke:#181818;stroke-width:1.0;"/><path d="M100.4688,32.5352 Q99.8906,32.832 99.25,32.9727 Q98.6094,33.1289 97.9063,33.1289 Q95.4063,33.1289 94.0781,31.4883 Q92.7656,29.832 92.7656,26.707 Q92.7656,23.582 94.0781,21.9258 Q95.4063,20.2695 97.9063,20.2695 Q98.6094,20.2695 99.25,20.4258 Q99.9063,20.582 100.4688,20.8789 L100.4688,23.5977 Q99.8438,23.0195 99.25,22.7539 Q98.6563,22.4727 98.0313,22.4727 Q96.6875,22.4727 96,23.5508 Q95.3125,24.6133 95.3125,26.707 Q95.3125,28.8008 96,29.8789 Q96.6875,30.9414 98.0313,30.9414 Q98.6563,30.9414 99.25,30.6758 Q99.8438,30.3945 100.4688,29.8164 L100.4688,32.5352 Z " fill="#000000"/><text fill="#D9B8FF" font-family="Helvetica" font-size="17" lengthAdjust="spacing" textLength="71" x="116.5" y="32.7798">resource</text></g><!--reverse link microsoft_resource to azure_web_app_static_site--><g id="link_microsoft_resource_azure_web_app_static_site"><path codeLine="32" d="M139,225.84 C139,256.36 139,297.69 139,328.25 " fill="none" id="microsoft_resource-backto-azure_web_app_static_site" style="stroke:#FFAF37;stroke-width:2.0;"/><polygon fill="none" points="139,207.84,133,225.84,145,225.84,139,207.84" style="stroke:#FFAF37;stroke-width:2.0;"/></g><!--reverse link resource to microsoft_resource--><g id="link_resource_microsoft_resource"><path codeLine="33" d="M139,65.05 C139,95.57 139,136.9 139,167.46 " fill="none" id="resource-backto-microsoft_resource" style="stroke:#FFAF37;stroke-width:2.0;"/><polygon fill="none" points="139,47.05,133,65.05,145,65.05,139,47.05" style="stroke:#FFAF37;stroke-width:2.0;"/></g><!--SRC=[XP1DJy9048Rl_HMRS2O1YHOIBz34w8KOyTvCkxEmeTrjPgOseFvtGT0iBH_NUP_C-yoih4Q5PIKRLMAP8N74Q-ig82ZLbCWtYIyygPunO4PnEtpoJcu2SoXHFMFnWM9pQ1FlAvkl7JAhko2QGRvUag-TFgmN0iUx29q4L580yrI4R5OB1Z9waesDQPFjfRsH7iOFsC4yQQGZCXWCz73IHcvMNRtxdrZOBQfX-BIv5-neTYf-gQkMUoAGx1pwbrzqV0MjhLkg-s3sTd0YXtGoNwn0-sPF6oWuh651GY-R2fFELJWPQnEVXLykmL6-Vvs2RKsODfYbK5Kf2-paKxQ2wZEAlezGQNFox8saXEnhoa_IqzaPzl6ht-zVRefQO7T3z0C0]--></g></svg>

<svg xmlns="http://www.w3.org/2000/svg" width="278" height="374" viewBox="0 0 278 374"><rect width="264" height="39.789" x="7" y="328.58" fill="#3D176E" rx="2.5" ry="2.5" style="stroke:#000d19;stroke-width:.5"/><circle cx="22" cy="348.474" r="11" fill="#ADD1B2" style="stroke:#181818;stroke-width:1"/><path d="M24.969 354.115q-.578.297-1.219.438-.64.156-1.344.156-2.5 0-3.828-1.64-1.312-1.657-1.312-4.782t1.312-4.781q1.328-1.656 3.828-1.656.703 0 1.344.156.656.156 1.219.453v2.719q-.625-.579-1.219-.844-.594-.281-1.219-.281-1.343 0-2.031 1.078-.687 1.062-.687 3.156t.687 3.172q.688 1.062 2.031 1.062.625 0 1.219-.265.594-.281 1.219-.86z"/><text x="41" y="354.36" fill="#D9B8FF" font-family="Helvetica" font-size="17" textLength="222">azure_web_app_static_site</text><rect width="200" height="39.789" x="39" y="167.79" fill="#3D176E" rx="2.5" ry="2.5" style="stroke:#000d19;stroke-width:.5"/><circle cx="54" cy="187.685" r="11" fill="#ADD1B2" style="stroke:#181818;stroke-width:1"/><path d="M56.969 193.325q-.578.297-1.219.438-.64.156-1.344.156-2.5 0-3.828-1.64-1.312-1.657-1.312-4.782t1.312-4.781q1.328-1.656 3.828-1.656.703 0 1.344.156.656.156 1.219.453v2.719q-.625-.578-1.219-.844-.594-.281-1.219-.281-1.343 0-2.031 1.078-.687 1.062-.687 3.156t.687 3.172q.688 1.062 2.031 1.062.625 0 1.219-.265.594-.281 1.219-.86z"/><text x="73" y="193.57" fill="#D9B8FF" font-family="Helvetica" font-size="17" textLength="158">microsoft_resource</text><rect width="113" height="39.789" x="82.5" y="7" fill="#3D176E" rx="2.5" ry="2.5" style="stroke:#000d19;stroke-width:.5"/><circle cx="97.5" cy="26.895" r="11" fill="#ADD1B2" style="stroke:#181818;stroke-width:1"/><path d="M100.469 32.535q-.578.297-1.219.438-.64.156-1.344.156-2.5 0-3.828-1.64-1.312-1.657-1.312-4.782t1.312-4.781q1.328-1.656 3.828-1.656.703 0 1.344.156.656.156 1.219.453v2.719q-.625-.578-1.219-.844-.594-.281-1.219-.281-1.344 0-2.031 1.078-.687 1.062-.687 3.156T96 29.879q.688 1.062 2.031 1.062.625 0 1.219-.265.594-.281 1.219-.86z"/><text x="116.5" y="32.78" fill="#D9B8FF" font-family="Helvetica" font-size="17" textLength="71">resource</text><path fill="none" d="M139 225.84v102.41m0-120.41-6 18h12zm0-142.79v102.41m0-120.41-6 18h12z" style="stroke:#ffaf37;stroke-width:2"/></svg>
